widgets/Query/css/images/fold-list-light-hover.svg

<svg width="16" height="16" xmlns="http://www.w3.org/2000/svg"><path d="M13 7.861V16h-1V7.861L9.817 10 9 9.2l3.5-3.429L16 9.2l-.817.8L13 7.861zM0 0h16v4H0V0zm0 6h8v2H0V6zm0 4h8v2H0v-2zm0 4h8v2H0v-2z" fill-rule="evenodd"/></svg>

<?xml version="1.0" encoding="UTF-8"?>
<svg width="16px" height="16px" viewBox="0 0 16 16" version="1.1" xmlns="http://www.w3.org/2000/svg" xmlns:xlink="http://www.w3.org/1999/xlink">
    <!-- Generator: Sketch 52.2 (67145) - http://www.bohemiancoding.com/sketch -->
    <title>foldingAll_hover</title>
    <desc>Created with Sketch.</desc>
    <g id="Query" stroke="none" stroke-width="1" fill="none" fill-rule="evenodd">
        <g id="icons" transform="translate(-142.000000, -159.000000)" fill="#000000">
            <g id="foldingAll_hover" transform="translate(142.000000, 159.000000)">
                <path d="M13,7.86122449 L13,16 L12,16 L12,7.86122449 L9.81666667,10 L9,9.2 L12.5,5.77142857 L16,9.2 L15.1833333,10 L13,7.86122449 Z M0,0 L16,0 L16,4 L0,4 L0,0 Z M0,6 L8,6 L8,8 L0,8 L0,6 Z M0,10 L8,10 L8,12 L0,12 L0,10 Z M0,14 L8,14 L8,16 L0,16 L0,14 Z" id="Combined-Shape"></path>
            </g>
        </g>
    </g>
</svg>
